svg/icon/grc.svg

<svg xmlns="http://www.w3.org/2000/svg" xmlns:xlink="http://www.w3.org/1999/xlink" width="32" height="32" viewBox="0 0 32 32">
  <defs>
    <linearGradient id="grc-c" x1="50%" x2="50%" y1="0%" y2="100%">
      <stop offset="0%" stop-color="#FFF" stop-opacity=".5"/>
      <stop offset="100%" stop-opacity=".5"/>
    </linearGradient>
    <circle id="grc-b" cx="16" cy="15" r="15"/>
    <filter id="grc-a" width="111.7%" height="111.7%" x="-5.8%" y="-4.2%" filterUnits="objectBoundingBox">
      <feOffset dy=".5" in="SourceAlpha" result="shadowOffsetOuter1"/>
      <feGaussianBlur in="shadowOffsetOuter1" result="shadowBlurOuter1" stdDeviation=".5"/>
      <feComposite in="shadowBlurOuter1" in2="SourceAlpha" operator="out" result="shadowBlurOuter1"/>
      <feColorMatrix in="shadowBlurOuter1" values="0 0 0 0 0   0 0 0 0 0   0 0 0 0 0  0 0 0 0.199473505 0"/>
    </filter>
    <path id="grc-e" d="M16.0499276,5 C16.5521104,5.3045 17.0504027,5.6159825 17.557254,5.912345 C19.9579377,7.315985 22.3603851,8.71658 24.7645444,10.11413 C24.9227571,10.2060575 24.9927338,10.3084325 24.9924744,10.5041525 C24.9878577,13.8374825 24.9891027,17.1708125 24.999996,20.50409 C25.0007223,20.7215975 24.9015929,20.812055 24.7443658,20.90372 C21.8863694,22.5707 19.029618,24.2399375 16.1730223,25.9093325 C16.1293452,25.9349 16.0908554,25.9696025 16.0499276,26 L15.9461815,26 C15.0832218,25.488125 14.2225964,24.9721025 13.3567837,24.4652675 C11.3162026,23.2706825 9.27427269,22.07846 7.22907482,20.8920125 C7.05597453,20.7916325 6.9994848,20.6776025 7.00000353,20.47721 C7.00861446,17.17034 7.01177871,13.86347 7.00456836,10.5566 C7.00404963,10.3192475 7.08538654,10.2000725 7.27856169,10.08788 C10.1098434,8.4432125 12.9372865,6.79172 15.7647815,5.140385 C15.8301416,5.1022175 15.8859569,5.047145 15.9461815,5 L16.0499276,5 Z M24.5501013,15.4957475 L24.5524356,15.4957475 C24.5524356,13.9296725 24.547352,12.363545 24.5581935,10.797575 C24.5597497,10.5726125 24.4910698,10.4470325 24.2965978,10.3489625 C24.0342759,10.21661 23.7857522,10.056275 23.5314706,9.907595 C21.093179,8.48222 18.6546279,7.0573175 16.2176849,5.6296325 C16.082452,5.5503575 15.9727924,5.5130825 15.8166546,5.6048525 C13.0898451,7.2068375 10.3598714,8.80331 7.62777092,10.39595 C7.48916619,10.4768 7.4400943,10.5656825 7.44035367,10.7265425 C7.44574846,13.8936575 7.44771964,17.060825 7.44066491,20.22794 C7.44019805,20.434475 7.51110848,20.5380575 7.67922896,20.63576 C10.3899578,22.211705 13.0981967,23.791955 15.8032713,25.377875 C15.9528213,25.46555 16.0563598,25.4606675 16.2017081,25.37546 C18.9138893,23.78513 21.6284567,22.19879 24.346344,20.61833 C24.5045049,20.52635 24.5544586,20.4245525 24.5537843,20.24642 C24.5474557,18.6628625 24.5501013,17.079305 24.5501013,15.4957475 Z M18.708441,21.6850408 C18.6470752,21.6427258 18.5235655,21.6246658 18.4636003,21.6585283 C17.8226053,22.0199383 17.1885613,22.3938958 16.5531686,22.7654383 C16.5258834,22.7814508 16.5044079,22.8076483 16.4663331,22.8414058 C16.923127,23.1291058 17.3671601,23.4088258 17.8534179,23.7151108 C17.4349063,23.9623333 17.0316454,24.1501258 16.6873641,24.4161433 C16.2081092,24.7864783 15.7913613,24.7888408 15.3127807,24.4159333 C14.980534,24.1570033 14.5892039,23.9757733 14.2250033,23.7585808 C14.2125538,23.7511783 14.2080409,23.7300733 14.1798219,23.6794633 C14.7791629,23.3193658 18.3072031,21.2243008 19.4159891,20.4555433 C20.4310405,19.7517283 21.2634989,18.8370733 21.7130824,17.6471083 C21.9019521,17.1471508 21.9855714,16.6060333 22.1104816,16.0820833 C22.127496,16.0107883 22.1062799,15.9302533 22.1020782,15.8397958 C22.0105223,15.8347558 21.9346321,15.8269333 21.8587937,15.8268808 C19.9570248,15.8259883 18.0553077,15.8245708 16.1535388,15.8293483 C16.061101,15.8296108 15.9211476,15.8562283 15.8836434,15.9193858 C15.4709416,16.6144333 15.0741648,17.3191933 14.6474573,18.0661633 L18.8400429,18.0661633 C18.8496913,18.0882133 18.8593396,18.1102633 18.868988,18.1322608 C18.6953171,18.2795758 18.5363782,18.4508308 18.3457448,18.5702158 C17.2229531,19.2732958 13.1830298,21.8244808 12.300099,22.4194108 C12.1622724,22.5122833 12.072532,22.5154333 11.9355873,22.4347408 C10.7047441,21.7087708 9.47146282,20.9871058 8.23455047,20.2718458 C8.09361145,20.1903658 8.05195741,20.0966533 8.05221678,19.9391008 C8.05709284,16.9819333 8.05797468,14.0248708 8.0535136,11.0677558 C8.05325424,10.9081033 8.09812441,10.8149158 8.23543231,10.7355358 C9.48033311,10.0161283 10.7237296,9.29393825 11.9619388,8.56287575 C12.115431,8.47220825 12.2069869,8.48339075 12.343828,8.59364075 C12.6540806,8.84364575 12.9812437,9.07280825 13.3088738,9.29966075 C13.366401,9.33950825 13.4801585,9.36334325 13.5330171,9.33273575 C14.1986518,8.94754325 14.8578024,8.55101075 15.5538347,8.13641825 C15.1008794,7.84950575 14.667584,7.57503575 14.1910784,7.27326575 C14.4780918,7.10295575 14.7272899,6.95427575 14.9773697,6.80701325 C15.2609596,6.63995825 15.5406071,6.46502825 15.8321854,6.31361825 C15.9162197,6.26993825 16.0581443,6.25376825 16.1349682,6.29634575 C16.6651106,6.59003075 17.1852414,6.90235325 17.7077065,7.21021325 C17.7275739,7.22192075 17.7384673,7.24922075 17.7758677,7.29893825 C17.3357769,7.57031075 14.0097303,9.55911575 12.817325,10.3454608 C11.8994836,10.9507333 11.1411518,11.7434833 10.5809231,12.7138933 C9.3857167,14.7843358 9.71957151,17.6220133 11.3581886,19.3527283 C11.9349129,19.9618858 12.5616428,20.5067308 13.2660267,20.9573383 C13.3382858,21.0035383 13.4700433,21.0381883 13.5328615,21.0028558 C14.1897297,20.6342008 14.8382463,20.2501633 15.4885265,19.8694858 C15.5018579,19.8616633 15.5090683,19.8429733 15.5227627,19.8244408 C15.0292428,19.5041908 14.5292386,19.1950183 14.0452114,18.8619058 C13.4359627,18.4425883 12.8689386,17.9716108 12.4431648,17.3512708 C11.5847181,16.1006158 11.6762221,14.5061908 12.6582304,13.3561258 C13.3708102,12.5215858 14.2709628,11.9358433 15.1917091,11.3795533 C16.3707311,10.6672333 19.3791074,8.81503325 19.6857288,8.57395325 C19.7959071,8.48732825 19.8687888,8.46338825 19.9999238,8.54077325 C21.2607496,9.28464575 22.5279039,10.0174933 23.7876404,10.7632033 C23.8635306,10.8081433 23.9351673,10.9360858 23.9354266,11.0255983 C23.9438819,14.0089108 23.9447119,16.9922758 23.938124,19.9755883 C23.9379165,20.0669383 23.8708447,20.1987133 23.7955251,20.2432858 C22.5207454,20.9974483 21.2396891,21.7407433 19.959774,22.4859808 C19.9305177,22.5029908 19.8984601,22.5151708 19.8765697,22.5254083 C19.4825941,22.2396508 19.1000824,21.9555733 18.708441,21.6850408 Z M21.4500343,12.7730083 C20.7855408,11.5854058 19.7946103,10.7280283 18.6868618,9.99413075 C18.6106085,9.94362575 18.4393756,9.97633325 18.3441886,10.0292008 C17.8147725,10.3232008 17.2951085,10.6351558 16.7724359,10.9415458 C16.670661,11.0011858 16.5702867,11.0632933 16.4428865,11.1402058 C16.5193992,11.1935983 16.5654625,11.2270933 16.6128225,11.2585933 C17.1750743,11.6324458 17.7528361,11.9847208 18.2961542,12.3848233 C19.0600883,12.9474133 19.707308,13.6175758 20.0105059,14.5607908 C20.0280908,14.6153908 20.1173643,14.6818033 20.1740615,14.6825908 C20.7942554,14.6913058 21.414605,14.6880508 22.0562225,14.6880508 C22.0203782,14.1078733 21.7766268,13.3567033 21.4500343,12.7730083 Z"/>
    <filter id="grc-d" width="119.4%" height="116.7%" x="-9.7%" y="-6%" filterUnits="objectBoundingBox">
      <feOffset dy=".5" in="SourceAlpha" result="shadowOffsetOuter1"/>
      <feGaussianBlur in="shadowOffsetOuter1" result="shadowBlurOuter1" stdDeviation=".5"/>
      <feColorMatrix in="shadowBlurOuter1" values="0 0 0 0 0   0 0 0 0 0   0 0 0 0 0  0 0 0 0.204257246 0"/>
    </filter>
  </defs>
  <g fill="none" fill-rule="evenodd">
    <use fill="#000" filter="url(#grc-a)" xlink:href="#grc-b"/>
    <use fill="#5411B3" xlink:href="#grc-b"/>
    <use fill="url(#grc-c)" style="mix-blend-mode:soft-light" xlink:href="#grc-b"/>
    <circle cx="16" cy="15" r="14.5" stroke="#000" stroke-opacity=".097"/>
    <g>
      <use fill="#000" filter="url(#grc-d)" xlink:href="#grc-e"/>
      <use fill="#FFF" xlink:href="#grc-e"/>
    </g>
  </g>
</svg>

<svg height="32" width="32" xmlns="http://www.w3.org/2000/svg" xmlns:xlink="http://www.w3.org/1999/xlink"><defs><linearGradient id="c" x1="50%" x2="50%" y1="0%" y2="100%"><stop offset="0" stop-color="#fff" stop-opacity=".5"/><stop offset="1" stop-opacity=".5"/></linearGradient><circle id="b" cx="16" cy="15" r="15"/><filter id="a" height="111.7%" width="111.7%" x="-5.8%" y="-4.2%"><feOffset dy=".5" in="SourceAlpha" result="shadowOffsetOuter1"/><feGaussianBlur in="shadowOffsetOuter1" result="shadowBlurOuter1" stdDeviation=".5"/><feComposite in="shadowBlurOuter1" in2="SourceAlpha" operator="out" result="shadowBlurOuter1"/><feColorMatrix in="shadowBlurOuter1" values="0 0 0 0 0 0 0 0 0 0 0 0 0 0 0 0 0 0 0.199473505 0"/></filter><path id="e" d="M16.05 5c.502.304 1 .616 1.507.912 2.4 1.404 4.803 2.805 7.208 4.202.158.092.228.194.227.39-.004 3.333-.003 6.667.008 10 0 .218-.098.308-.256.4-2.858 1.667-5.714 3.336-8.571 5.005-.044.026-.082.06-.123.091h-.104c-.863-.512-1.723-1.028-2.59-1.535-2.04-1.194-4.082-2.387-6.127-3.573-.173-.1-.23-.214-.229-.415.009-3.307.012-6.614.005-9.92-.001-.238.08-.357.274-.47 2.83-1.644 5.658-3.295 8.486-4.947.065-.038.121-.093.181-.14zm8.5 10.496h.002c0-1.566-.005-3.132.006-4.698.002-.225-.067-.351-.261-.449-.263-.132-.511-.293-.766-.441-2.438-1.426-4.876-2.85-7.313-4.278-.136-.08-.245-.117-.401-.025a2794.257 2794.257 0 0 1-8.19 4.791c-.138.08-.187.17-.187.33.006 3.168.008 6.335 0 9.502 0 .206.071.31.24.408 2.71 1.576 5.418 3.156 8.123 4.742.15.088.253.083.399-.003a2601.19 2601.19 0 0 1 8.144-4.757c.159-.092.208-.193.208-.372-.007-1.583-.004-3.167-.004-4.75zm-5.842 6.189c-.06-.042-.184-.06-.244-.026-.641.36-1.275.735-1.91 1.106-.028.016-.05.043-.088.076l1.387.874c-.418.247-.821.435-1.166.701-.479.37-.896.373-1.374 0-.332-.259-.724-.44-1.088-.657-.012-.008-.017-.029-.045-.08.6-.36 4.127-2.455 5.236-3.223 1.015-.704 1.847-1.619 2.297-2.809.189-.5.273-1.041.397-1.565.017-.071-.004-.152-.008-.242-.091-.005-.167-.013-.243-.013-1.902-.001-3.804-.002-5.705.002-.093 0-.233.027-.27.09-.413.695-.81 1.4-1.237 2.147h4.193l.029.066c-.174.148-.333.319-.523.438-1.123.703-5.163 3.254-6.046 3.85-.138.092-.227.095-.364.015a497.626 497.626 0 0 0-3.701-2.163c-.141-.082-.183-.175-.183-.333.005-2.957.006-5.914.002-8.871 0-.16.044-.253.181-.332 1.245-.72 2.489-1.442 3.727-2.173.153-.09.245-.08.382.03.31.25.637.48.965.707.057.04.171.063.224.033.666-.385 1.325-.782 2.02-1.197l-1.362-.863c.287-.17.536-.319.786-.466.284-.167.564-.342.855-.493.084-.044.226-.06.303-.018.53.294 1.05.606 1.573.914.02.012.03.04.068.089-.44.271-3.766 2.26-4.959 3.046a7.021 7.021 0 0 0-2.236 2.369c-1.195 2.07-.861 4.908.777 6.639.577.609 1.204 1.154 1.908 1.604.072.047.204.081.267.046.657-.369 1.305-.753 1.956-1.134.013-.007.02-.026.034-.045-.494-.32-.994-.629-1.478-.962-.609-.42-1.176-.89-1.602-1.51-.858-1.251-.767-2.846.215-3.996.713-.834 1.613-1.42 2.534-1.976 1.179-.713 4.187-2.565 4.494-2.806.11-.087.183-.11.314-.033 1.26.744 2.528 1.476 3.788 2.222a.36.36 0 0 1 .147.263c.009 2.983.01 5.966.003 8.95 0 .09-.067.223-.142.267-1.275.754-2.556 1.498-3.836 2.243-.03.017-.062.03-.083.04-.394-.286-.777-.57-1.169-.841zm2.742-8.912c-.664-1.188-1.655-2.045-2.763-2.779-.076-.05-.248-.018-.343.035-.53.294-1.049.606-1.572.913l-.33.198.17.119c.563.373 1.14.726 1.684 1.126.764.562 1.411 1.233 1.715 2.176.017.054.106.12.163.122.62.008 1.24.005 1.882.005-.036-.58-.28-1.331-.606-1.915z"/><filter id="d" height="116.7%" width="119.4%" x="-9.7%" y="-6%"><feOffset dy=".5" in="SourceAlpha" result="shadowOffsetOuter1"/><feGaussianBlur in="shadowOffsetOuter1" result="shadowBlurOuter1" stdDeviation=".5"/><feColorMatrix in="shadowBlurOuter1" values="0 0 0 0 0 0 0 0 0 0 0 0 0 0 0 0 0 0 0.204257246 0"/></filter></defs><g fill="none" fill-rule="evenodd"><use fill="#000" filter="url(#a)" xlink:href="#b"/><use fill="#5411b3" xlink:href="#b"/><use fill="url(#c)" xlink:href="#b"/><circle cx="16" cy="15" r="14.5" stroke="#000" stroke-opacity=".097"/><use fill="#000" filter="url(#d)" xlink:href="#e"/><use fill="#fff" xlink:href="#e"/></g></svg>
